assets/images/Clock.svg

<svg fill="none" height="30" viewBox="0 0 30 30" width="30" xmlns="http://www.w3.org/2000/svg"><g fill="#fff"><path d="m15.9375 8.75c0-.51777-.4197-.9375-.9375-.9375s-.9375.41973-.9375.9375v6.25c0 .3232.1665.6237.4406.795l3.75 2.3437c.4391.2745 1.0175.141 1.2919-.2981.2744-.439.1409-1.0174-.2981-1.2918l-3.3094-2.0684z"/><path clip-rule="evenodd" d="m15 4.0625c-6.04062 0-10.9375 4.89688-10.9375 10.9375 0 6.0406 4.89688 10.9375 10.9375 10.9375 6.0406 0 10.9375-4.8969 10.9375-10.9375 0-6.04062-4.8969-10.9375-10.9375-10.9375zm-9.0625 10.9375c0-5.00508 4.05742-9.0625 9.0625-9.0625 5.0051 0 9.0625 4.05742 9.0625 9.0625 0 5.0051-4.0574 9.0625-9.0625 9.0625-5.00508 0-9.0625-4.0574-9.0625-9.0625z" fill-rule="evenodd"/></g></svg>

<svg width="30" height="30" viewBox="0 0 30 30" fill="none" xmlns="http://www.w3.org/2000/svg">
<path d="M15.9375 8.75C15.9375 8.23223 15.5178 7.8125 15 7.8125C14.4822 7.8125 14.0625 8.23223 14.0625 8.75V15C14.0625 15.3232 14.229 15.6237 14.5031 15.795L18.2531 18.1387C18.6922 18.4132 19.2706 18.2797 19.545 17.8406C19.8194 17.4016 19.6859 16.8232 19.2469 16.5488L15.9375 14.4804V8.75Z" fill="white"/>
<path fill-rule="evenodd" clip-rule="evenodd" d="M15 4.0625C8.95938 4.0625 4.0625 8.95938 4.0625 15C4.0625 21.0406 8.95938 25.9375 15 25.9375C21.0406 25.9375 25.9375 21.0406 25.9375 15C25.9375 8.95938 21.0406 4.0625 15 4.0625ZM5.9375 15C5.9375 9.99492 9.99492 5.9375 15 5.9375C20.0051 5.9375 24.0625 9.99492 24.0625 15C24.0625 20.0051 20.0051 24.0625 15 24.0625C9.99492 24.0625 5.9375 20.0051 5.9375 15Z" fill="white"/>
</svg>
